!!!!SEGMENT: pl-kozmzk--mzk-m-346--005_walczynski-franciszek--cantantibus-organis-allegretto-quasi-pastorale.krn
!!!cenid: 18xx:2800
!!!COM: Walczyński, Franciszek
!!!COM-rismid: pe30021989
!!!CDT: ~1852-1937
!!!CNT: Polish
!!!OTL: Cantantibus organis – Allegretto quasi pastorale
!!!PDT: 1898
!!!AGN: Secular
!!!SMS-siglum: PL-KOZmzk
!!!SMS-shelfmark: mzk/m/346
!!!SMS-shelfwork: 005 G
!!!SMS-variant:
!!!SMS-altvar:
!!!NIFC-rismid: 1001109066
!!!URL-scan: https://repozytorium.nifc.pl/islandora/object/pl-kozmzk%3A7453/datastream/PDF/view
!!!ONB-nifc:
**kern	**kern	**dynam
*part1	*part1	*part1
*staff2	*staff1	*
*I"Organo	*I"Organo	*
*clefF4	*clefG2	*
*k[]	*k[]	*
*a:	*a:	*
*M6/8	*M6/8	*
=1	=1	=1
*^	*	*
!!LO:TX:a:B:t=Allegretto quasi pastorale.
2.r	2.r	(8e/L	p
.	.	8a/	.
.	.	8cc/J	.
.	.	8b/	.
.	.	[4ee^\	.
=2	=2	=2	=2
*	*	*^	*
2.r	2.r	4.ee/]	(16dd\LL	<
.	.	.	16cc\	.
.	.	.	16b\	.
.	.	.	16dd\	.
.	.	.	16cc\	.
.	.	.	16a\JJ)	[
.	.	8qdd#X/	.	>
.	.	4.b/) 4.ee	4.e\	.
*v	*v	*	*	*
=3	=3	=3	=3
!	!	!	!LO:DY:b=2
(>8E/L	2.r	2.r	] pp
8A/	.	.	.
8c/J	.	.	.
8B/	.	.	.
[4e^>/	.	.	.
=4	=4	=4	=4
*^	*	*	*
4.e/]	(16d\LL	2.rg	2.r;>	.
.	16c\	.	.	.
.	16B\	.	.	.
.	16d\	.	.	.
.	16c\	.	.	.
.	16A\JJ	.	.	.
8qd#X/	.	.	.	.
4.B;/) 4.e	4.E;\)	.	.	.
=5	=5	=5	=5	=5
!	!	!	!	!LO:DY:a
(8A/L	[2.E\	(16cc#X/LL	[4.e\	p
.	.	16dd/	.	.
8B/	.	16cc#t/	.	.
.	.	16b/	.	.
16c#X/L	.	16a/	.	.
16A/JJ	.	16cc#/JJ	.	.
.	.	8qdd#X/	.	.
8G#X/L	.	4.ee^/)	4.b 4.e\]	.
8d/	.	.	.	.
16c#/L	.	.	.	.
16B/JJ)	.	.	.	.
=6	=6	=6	=6	=6
!!LO:PB:g=original
8A/L	(4.E\_	(16ccn/LL	[4.e\	.
.	.	16dd/	.	.
8B/	.	16ccT/	.	.
.	.	16b/	.	.
16B/L	.	16a/	.	.
16A/JJ	.	16cc/JJ	.	.
.	.	8qdd#X/	.	.
4.G#X/	4E\]	4.ee^/)	4.e\] 4.b	.
.	8D\)	.	.	.
=7	=7	=7	=7	=7
(4A^/	(4.C\	(>4.ee/	(4.e\	f
16G#X/LL	.	.	.	.
16A/JJ)	.	.	.	.
[4.A/	4.D\	4dd/	4.f\	.
.	.	16a/LL	.	.
.	.	16b/JJ	.	.
=8	=8	=8	=8	=8
16A/LL]	4.E\	4cc/	8e\L	.
16B/	.	.	.	.
16c/	.	.	8a\	.
16d/	.	.	.	.
16e/	.	8b/	8g#X\J	.
16d/JJ	.	.	.	.
4.c/	4.AA\)	4.a/)	4.a\)	.
=9	=9	=9	=9	=9
!!LO:TX:a:B:t=Lento.
2.rc	(8EE\L	2.r	2.r	pp
.	8AA\	.	.	.
.	8C\J	.	.	.
.	8BB\	.	.	.
.	4E\	.	.	.
*	*	*v	*v	*
=10	=10	=10	=10
2.rc	16D\LL	8r	.
.	16C\JJ	.	.
.	8BB\L	8r	.
.	16F\L	8d/ 8g#X 8b	pp >
.	16E\JJ	.	.
.	4.AA;\)	4.c;/ 4.e 4.a	]]
*v	*v	*	*
==	==	==
*-	*-	*-
!!!system-decoration: {(s1,s2)}
!!!RDF**kern: > = above
!!!RDF**kern: < = below
!!!ENC: Kamil Watkowski
!!!END: 2021-08-09
